X: 152
M: C
L: 1/8
K: G
[|\
(ED) (EG) {G2}A4 | G3 A B2 (AB) | (cB) (AG)
(B>c d2) |][| e2 (ge) d2 (ed) | B2 (gB) {B2}A4 |
e2 (ge) d3 e | (g>a) (ba) g4 | e2 (ge)
d2 (ed) | (cB) (gB) A3 B | (G>AB) c (d>ed) c |
{c}B2 (AG) (B>c d2) |]

